dist/img/circle-caret-down-solid-full.svg

<svg xmlns="http://www.w3.org/2000/svg" viewBox="0 0 640 640"><!--!Font Awesome Pro 7.0.1 by @fontawesome - https://fontawesome.com License - https://fontawesome.com/license (Commercial License) Copyright 2025 Fonticons, Inc.--><path d="M320 64C178.6 64 64 178.6 64 320s114.6 256 256 256 256-114.6 256-256S461.4 64 320 64m0 352c-6.7 0-13-2.8-17.6-7.7l-104-112c-6.5-7-8.2-17.2-4.4-25.9s12.5-14.4 22-14.4h208c9.5 0 18.2 5.7 22 14.4s2.1 18.9-4.4 25.9l-104 112c-4.5 4.9-10.9 7.7-17.6 7.7"/></svg>

<svg xmlns="http://www.w3.org/2000/svg" viewBox="0 0 640 640"><!--!Font Awesome Pro 7.0.1 by @fontawesome - https://fontawesome.com License - https://fontawesome.com/license (Commercial License) Copyright 2025 Fonticons, Inc.--><path d="M320 64C178.6 64 64 178.6 64 320C64 461.4 178.6 576 320 576C461.4 576 576 461.4 576 320C576 178.6 461.4 64 320 64zM320 416C313.3 416 307 413.2 302.4 408.3L198.4 296.3C191.9 289.3 190.2 279.1 194 270.4C197.8 261.7 206.5 256 216 256L424 256C433.5 256 442.2 261.7 446 270.4C449.8 279.1 448.1 289.3 441.6 296.3L337.6 408.3C333.1 413.2 326.7 416 320 416z"/></svg>
